packages/core/src/svgs/tokens/branded/CUDOS.svg

<svg width="24" height="24" viewBox="0 0 24 24" fill="none" xmlns="http://www.w3.org/2000/svg">
<path fill-rule="evenodd" clip-rule="evenodd" d="M19.0655 4.92343C17.1887 3.04954 14.6443 1.99798 11.9922 2.00006C9.33997 2.00214 6.79727 3.05771 4.92338 4.93454C3.04949 6.81137 1.99792 9.35573 2 12.0079C2.00209 14.66 3.05766 17.2028 4.93449 19.0767C6.81132 20.9506 9.35568 22.0021 12.0079 22C14.66 21.9979 17.2027 20.9424 19.0766 19.0655C20.9504 17.1887 22.0021 14.6443 22 11.9922C21.9979 9.34002 20.9423 6.79732 19.0655 4.92343ZM11.4446 20.8874C9.17605 20.7764 7.03755 19.7956 5.47328 18.1491C3.92787 16.4774 3.08288 14.2764 3.11256 12.0001C3.08145 9.72182 3.92655 7.51855 5.47328 5.8455C7.03846 4.20092 9.17684 3.22223 11.4446 3.11262V6.43984C10.0657 6.56629 8.78472 7.20674 7.85622 8.234C6.93064 9.26819 6.42711 10.6122 6.44534 12.0001C6.44534 13.3887 6.91749 14.7329 7.85622 15.7605C8.80052 16.7936 10.0558 17.4269 11.4446 17.5547V20.8874ZM18.51 18.1491C16.938 19.8155 14.8439 20.7542 12.5554 20.8874V17.5547C13.5884 17.4554 14.5732 17.07 15.3989 16.4416C16.2248 15.8133 16.859 14.9669 17.23 13.9979C17.6012 13.0288 17.6945 11.9755 17.4997 10.9562C17.3048 9.93697 16.8295 8.99227 16.1271 8.22844C15.2032 7.20593 13.9279 6.56925 12.5554 6.44541V3.11262C14.2506 3.18892 15.8868 3.75684 17.2646 4.7471C18.6426 5.73736 19.7026 7.10717 20.3152 8.68948C20.9449 10.2747 21.1093 12.0066 20.7896 13.682C20.4698 15.3574 19.6791 16.907 18.51 18.1491ZM11.9999 16.4437C13.1785 16.4437 14.3088 15.9755 15.1422 15.1422C15.9756 14.3089 16.4437 13.1786 16.4437 12.0001C16.4437 10.8215 15.9756 9.69123 15.1422 8.85785C14.3088 8.0245 13.1785 7.55633 11.9999 7.55633C10.8214 7.55633 9.69111 8.0245 8.85781 8.85785C8.02445 9.69123 7.55628 10.8215 7.55628 12.0001C7.55628 13.1786 8.02445 14.3089 8.85781 15.1422C9.69111 15.9755 10.8214 16.4437 11.9999 16.4437Z" fill="url(#paint0_linear_364_2927)"/>
<defs>
<linearGradient id="paint0_linear_364_2927" x1="2.41268" y1="16.3216" x2="21.2595" y2="7.32859" gradientUnits="userSpaceOnUse">
<stop stop-color="#2D9DFD"/>
<stop offset="1" stop-color="#36D5FD"/>
</linearGradient>
</defs>
</svg>

<svg xmlns="http://www.w3.org/2000/svg" width="24" height="24" fill="none" viewBox="0 0 24 24">
    <path fill="url(#CUDOS__a)" fill-rule="evenodd" d="M19.066 4.923A10 10 0 1 0 4.935 19.076a10 10 0 0 0 14.13-14.153m-7.621 15.964a8.83 8.83 0 0 1-5.972-2.738A8.9 8.9 0 0 1 3.113 12a8.9 8.9 0 0 1 2.36-6.154 8.83 8.83 0 0 1 5.972-2.733V6.44a5.52 5.52 0 0 0-3.589 1.794A5.54 5.54 0 0 0 6.446 12c0 1.389.471 2.733 1.41 3.76a5.5 5.5 0 0 0 3.589 1.795zm7.065-2.738c-1.572 1.666-3.666 2.605-5.955 2.738v-3.332a5.576 5.576 0 0 0 3.572-9.327 5.48 5.48 0 0 0-3.572-1.783V3.113a8.74 8.74 0 0 1 7.76 5.576 8.97 8.97 0 0 1-1.805 9.46M12 16.444a4.444 4.444 0 1 0 0-8.889 4.444 4.444 0 0 0 0 8.889" clip-rule="evenodd"/>
    <defs>
        <linearGradient id="CUDOS__a" x1="2.413" x2="21.259" y1="16.322" y2="7.329" gradientUnits="userSpaceOnUse">
            <stop stop-color="#2D9DFD"/>
            <stop offset="1" stop-color="#36D5FD"/>
        </linearGradient>
    </defs>
</svg>
